Numix-GalliumOS/22/apps/goa-account-kerberos.svg

<?xml version="1.0" encoding="UTF-8" standalone="no"?>
<svg
   xmlns:dc="http://purl.org/dc/elements/1.1/"
   xmlns:cc="http://creativecommons.org/ns#"
   xmlns:rdf="http://www.w3.org/1999/02/22-rdf-syntax-ns#"
   xmlns:svg="http://www.w3.org/2000/svg"
   xmlns="http://www.w3.org/2000/svg"
   xmlns:sodipodi="http://sodipodi.sourceforge.net/DTD/sodipodi-0.dtd"
   xmlns:inkscape="http://www.inkscape.org/namespaces/inkscape"
   viewBox="0 0 22 22"
   id="svg2"
   version="1.1"
   inkscape:version="0.91 r"
   sodipodi:docname="goa-account-kerberos.svg"
   width="22"
   height="22">
  <metadata
     id="metadata10">
    <rdf:RDF>
      <cc:Work
         rdf:about="">
        <dc:format>image/svg+xml</dc:format>
        <dc:type
           rdf:resource="http://purl.org/dc/dcmitype/StillImage" />
        <dc:title />
      </cc:Work>
    </rdf:RDF>
  </metadata>
  <defs
     id="defs8" />
  <sodipodi:namedview
     pagecolor="#ffffff"
     bordercolor="#666666"
     borderopacity="1"
     objecttolerance="10"
     gridtolerance="10"
     guidetolerance="10"
     inkscape:pageopacity="0"
     inkscape:pageshadow="2"
     inkscape:window-width="1920"
     inkscape:window-height="1056"
     id="namedview6"
     showgrid="true"
     inkscape:zoom="11.313709"
     inkscape:cx="18.383456"
     inkscape:cy="9.5521766"
     inkscape:window-x="0"
     inkscape:window-y="24"
     inkscape:window-maximized="1"
     inkscape:current-layer="svg2">
    <inkscape:grid
       type="xygrid"
       id="grid4138" />
  </sodipodi:namedview>
  <path
     d="M 6.0924013,18 C 6.9186163,13.705043 4.692036,12.274168 2.602051,13.901187 L 1.6547522,13.313275 3.3306635,11.414754 3.3677852,10.510432 4.9712636,9.486958 4.5689003,8.4615227 C 5.2564373,8.7623295 5.8931809,8.7173911 6.1412932,9.426417 7.6237483,9.60611 9.0458438,11.145244 8.9794474,12.168597 9.9033268,9.486777 11.198302,8.0550243 7.3367343,6.1252971 L 7.2157114,5.1018234 9.6337558,5.7190402 10.3994,5.3127834 11.542026,6.0198471 12.366279,5.4026302 c -0.234379,0.5879116 0.291029,0.7519717 -0.144533,1.2500674 1.228579,1.0234737 0.84378,4.2364064 0.976604,5.5628304 0.343753,-1.041069 1.146519,-2.20126 2.54118,-2.519752 0.109373,-0.632851 1.000175,-0.630889 1.50992,-1.0840159 l -0.166022,1.0098019 1.410204,0.962933 0.01756,0.919955 1.834056,2.035358 -1.285197,0.617218 C 16.013054,11.805378 15.130281,14.898281 16.048063,18 Z"
     style="fill:#791918;stroke:none;stroke-width:0.12072"
     id="path4"
     inkscape:connector-curvature="0"
     sodipodi:nodetypes="cccccccccccccccccccccccccc" />
</svg>

<svg xmlns="http://www.w3.org/2000/svg" viewBox="0 0 22 22">
 <path d="m 6.092 18 c 0.826 -4.295 -1.4 -5.726 -3.49 -4.099 l -0.947 -0.588 1.676 -1.899 0.037 -0.904 1.603 -1.023 -0.402 -1.025 c 0.688 0.301 1.324 0.256 1.572 0.965 1.482 0.18 2.905 1.719 2.838 2.742 0.924 -2.682 2.219 -4.114 -1.643 -6.04 l -0.121 -1.023 2.418 0.617 0.766 -0.406 1.143 0.707 0.824 -0.617 c -0.234 0.588 0.291 0.752 -0.145 1.25 1.229 1.023 0.844 4.236 0.977 5.563 0.344 -1.041 1.147 -2.201 2.541 -2.52 0.109 -0.633 1 -0.631 1.51 -1.084 l -0.166 1.01 1.41 0.963 0.018 0.92 1.834 2.035 -1.285 0.617 c -3.047 -2.352 -3.93 0.741 -3.01 3.843" style="fill:#791918;stroke:none"/>
</svg>
